X:1
T:[ID 1-86a]
T:[ID 1-86a]
T:Bezeichnung standardisiert: Sesken ach mein Schatz ist wieder kommen; Sesken ach mein Schatz ist wieder kommen
T:Urheber unbekannt Datum in der hier transkribierten schriftlichen Quelle: vermutlich vor 1767
C:Urheber unbekannt
C:Datum in der hier transkribierten schriftlichen Quelle: vermutlich vor 1767
L:1/8
M:2/2
K:G
V:1 treble 
V:1
 d2 d2 d2 ef | g2 d2 B2 G2 | d4 c4 | d2 d2 d2 ef | g2 d2 B2 G2 | d4 B4 :: B2 B2 B2 AB | %7
 c2 B2 A2 G2 | A4 G4 :| %9

